!!!COM: Music21
!!!OTL: Muiñeira
!!!OMV: pezas_muineiras_muineira-72_muineira-partitura.musicxml
**kern
*part1
*staff1
*I"Bagpipes
*I'Bag
*clefG^2
*k[]
*M6/8
=1
!LO:TX:a:t=Presto
*MM180
!LO:TX:a:t=[quarter]=180
4.r
8ccL
8ee
8ggJ
=||
8ccL
8ee
8ggJ
8cccL
8bb
8aaJ
=
4gg
8ee
8ccL
8ee
8ggJ
=
4ff
8dd
8bL
8dd
8ffJ
=
4ee
8cc
8ccL
8ee
8ggJ
=
8ccL
8ee
8ggJ
8cccL
8bb
8aaJ
!!linebreak:original
=
4gg
8ee
8ccL
8ee
8ggJ
!!linebreak:original
=
8ffL
8dd
8bJ
8ddL
8b
8ddJ
=
4.cc
8ccL
8ee
8ggJ
=||
8ccL
8ee
8ggJ
8cccL
8bb
8aaJ
=
4gg
8ee
8ccL
8ee
8ggJ
=
4ff
8dd
8bL
8dd
8ffJ
=
4ee
8cc
8ccL
8ee
8ggJ
!!linebreak:original
=
8ccL
8ee
8ggJ
8cccL
8bb
8aaJ
=
4gg
8ee
8ccL
8ee
8ggJ
!!linebreak:original
=
8ffL
8dd
8bJ
8ddL
8b
8ddJ
=
4.cc
4ee
8ff
=||
8ggL
8ee
8ggJ
8eeL
8gg
8eeJ
=
4ff
8dd
4ff
8gg
=
8aaL
8ff
8aaJ
8ffL
8aa
8ffJ
=
4gg
8ee
4ee
8gg
!!pagebreak:original
=
8ggL
8ee
8ggJ
8eeL
8gg
8eeJ
=
4ff
8ff
8ddL
8ee
8ffJ
=
8ggL
8aa
8ggJ
8ffL
8ee
8ddJ
=
4.ee
4ee
8ff
=||
8ggL
8ee
8ggJ
8eeL
8gg
8eeJ
=
4ff
8dd
4ff
8gg
!!linebreak:original
=
8aaL
8ff
8aaJ
8ffL
8aa
8ffJ
=
4gg
8ee
4ee
8gg
!!linebreak:original
=
8ggL
8ee
8ggJ
8eeL
8gg
8eeJ
=
4ff
8ff
8ddL
8ee
8ffJ
=
8ggL
8aa
8ggJ
8ffL
8ee
8ddJ
=||
4.ee
8ccL
8ee
8ggJ
=||
8ee
8r
2r
==
*-
!!!system-decoration: s1,s2
